X:90
T: Lake Shore
S: S.O Driscoll
Z: B.Black
N: Close relative to "The Westmeath Jig"
M: 6/8
L: 1/8
R: jig
K: D
E | EFG A2 d | =cBc E2 D | EGG EAA | EGG GED |
EFG A2 d | =cBc E2 D | EGG AGE | EDC D2 :|
d | fed edc | edc d2 e | fed cAA | cAG Ace |
dcB cBA | d2 d cAG | EFG AGE | EDC D2 :|
